X:9
T:La Fougère
R:---
C:Bretagne
I:abc2nwc
M:4/4
L:1/8
K:C
cd e2c2dd|cd e2c2d2|cd e2c2dd|cd e2c2d2:|
e2ed ef g2|e2ed ef g2|e2eg fe d2|de fe d2c2|e2eg fe d2|de fe d2c2|]

%%footer $D   Galouvielle-MBe 2007 \n-- (Provence - tradition militaire)
